X:1
T:Title
%%score { ( 1 3 ) | 2 }
L:1/8
M:2/2
K:C
V:1 treble nm="Grand Piano"
V:3 treble 
V:2 bass 
V:1
 z4 z2[Q:1/4=108] [EG]2 | [EG]2 [EG]2 [EG]2 [EG]2 | [EG]2 [EG]4 [EG]2 | [EG]2 [EA]2 [Ec]2 [EA]2 | %4
 [FB]6 B2 | B2 B2 B2 B2 | B2 B4 B2 | [^Fc]2 [FB]2 [Fc]2 A2 | d6 [B,FG]2 | %9
 [CEG]2 [B,EG]2 [_B,EG]2 [B,EG]2 | [B,FG]2 [B,FG]4 [B,FG]2 | [CGc]2 [CGc]2 [_Bd]2 [Bc]2 | %12
 [Ac]6 [Ac]2 | [Ac]2 [Ac]2 [^Gd]2 [G_e]2 | e2 c4 c2 | G2 [GA]2 [^Fc]2 B2 |[M:3/4] [Ec]6 | %17
[M:1/4] [Ee]2 |[M:4/4] [Ed]2 [Ec]2 [EB]2 [EA]2 | [Gf]4 B2 c2 | B2 A2 d2 G2 | [EG]6 [EG]2 | %22
 [EA]2 [EB]2 [Fd]2 [Ec]2 | e4 z4 | %24
 [^FB]2 c2 d e3[Q:1/4=106][Q:1/4=105][Q:1/4=103][Q:1/4=102][Q:1/4=100][Q:1/4=98][Q:1/4=97][Q:1/4=95][Q:1/4=94][Q:1/4=92][Q:1/4=91][Q:1/4=89][Q:1/4=87][Q:1/4=86][Q:1/4=84][Q:1/4=83] | %25
[M:3/4] [Ec]6 |] %26
V:2
 z4 z2 [C,G,]2 | [C,G,]2 [C,A,]2 [C,B,]2 [C,C]2 | [C,C]2 [C,C]4 [C,C]2 | %3
 [C,C]2 [C,C]2 [C,A,]2 [C,C]2 | [D,G,]6[K:treble] [G,D]2 | [G,DF]2 [G,^CF]2 [G,DF]2 [G,E]2 | %6
 [G,DF]2 [G,DF]4 [G,DF]2 | [D,D]2 [D,D]2 [D,A,]2 [^F,C]2 | [G,B,G]6 G,,2 | C,2 C,2 ^C,2 C,2 | %10
 D,2 D,4 D,2 | E,2 E,2 [E,C]2 [E,C]2 | [F,C]6 [F,C]2 | [F,C]2 [F,C]2 [^F,C]2 [F,C]2 | %14
 [G,CG]2 [G,E]4[K:bass] [G,CE]2 | [E,C]2 [E,^C]2 [D,D]2 [G,F]2 |[M:3/4] [C,G,]6 |[M:1/4] [C,G,]2 | %18
[M:4/4] [C,G,]2 [C,G,]2 [C,G,]2 [C,C]2 | [D,B,]4[K:treble] [G,DF]2 [G,EG]2 | %20
 [G,DF]2 [G,CF]2 [G,B,F]2 [G,B,F]2 | [C,C]6 [C,C]2 | [C,C]2 [C,G,]2 [C,G,]2 [C,G,]2 | %23
 [C,C]4 [F,C]2 [E,^C]2 | [D,D]2[K:treble] [A,C^F]2 [G,B,=F] [G,B,G]3 |[M:3/4][K:bass] [C,C]6 |] %26
V:3
 x8 | x8 | x8 | x8 | x8 | x8 | x8 | x8 | x8 | x8 | x8 | x8 | x8 | x8 | x8 | x8 |[M:3/4] x6 | %17
[M:1/4] x2 |[M:4/4] x8 | x8 | x8 | x8 | x8 | G2 _B2 [Af]2 [GA]2 | x8 |[M:3/4] x6 |] %26

